X: 1
T: Div\vcibarsko
O: Croatia
M: 4/4
L: 1/16
K: F
|::: "F"cBA2 AGAB    | cBA2 AGAB     | "C"c2B2  B2cB   |1,3 "F"A2AF ABc2 \
                                                      :|2,4 "F"A2AF A4 :|
|::: "C"c2B2 B2cB    | "F"A2AG ABc2  | "C"c2B2 B2cB    |1,3 "F"A2AF A2AF \
                                                      :|2,4 "F"A2AF A4 :|
|::: "F"c'2c'2 c'ba2 | c'2c'2 c'bab  | "C"c'2b2 b2c'b  |1,3 "F"a2ag abc'2 \
                                                      :|2,4 "F"a2af a4 :|
|::: "F"F2AF AFAF    | "Bb"B2BA B2BG |1,3 "F"FGA2 AFAc    | "C"BAGF G4 \
                                    :|2,4 "F"BAGF "G"GFEF | "C"G2GF G4 :|
%%sep 1 1 8cm
